!!!OTL: Koenig Ludwig aus Ungarn
!!!ARE: Europa, Mitteleuropa, Deutschland
!!!SCT: A0392
!!!YEM: Copyright 1995, estate of Helmut Schaffrath.
**kern
*ICvox
*Ivox
!! Mixed meters:  6/2; 4/1
*M4/1
*k[b-]
*F:
{2f
=1
1f
2e
1f
2g
=2
1a
1g}
{1f
=3
1f
2e
1f
2g
=4
1a
1g
2r}
{2f
=5
1a
2a
1b-
2a
=6
1cc
1b-}
{1a
=7
1g
2g
1f
2g
=8
1a
1g
2r}
{2cc
=9
1cc
2b-
1a
2g
=10
1f
1c}
{1f
=11
1f
2e
1f
2g
=12
1a
1g
2r}
{2f
=13
1a
2a
1b-
2b-
=14
1cc
1b-}
{1a
=15
1b-
2cc
1a
2g
=16
1f
1c
1f
=17
1a
2b-
1cc
2b-
1g
=18
0.f}
==
!!!AGN: Romanze, Ballade, Lied, religioeses Lied
!! Basts Gsgb. 1545 II. No.11.
!!!ONB: ESAC (Essen Associative Code) Database: ALTDEU
!!!AMT: irregular
!!!AIN: vox
!!!EED: Helmut Schaffrath
!!!EEV: 1.0
*-
